x-pack/platform/packages/shared/kbn-inference-endpoint-ui-common/src/components/providers/assets/images/amazon_sagemaker_monochrome.svg

<svg width="32" height="32" viewBox="0 0 32 32" fill="none" xmlns="http://www.w3.org/2000/svg">
<mask id="mask0_2435_198" style="mask-type:luminance" maskUnits="userSpaceOnUse" x="2" y="2" width="28" height="28">
<path d="M30 2H2V30H30V2Z" fill="white"/>
</mask>
<g mask="url(#mask0_2435_198)">
<path fill-rule="evenodd" clip-rule="evenodd" d="M23.2769 8.63527C23.2769 8.92036 23.0404 9.1525 22.7496 9.1525C22.4597 9.1525 22.2233 8.92036 22.2233 8.63527C22.2233 8.35019 22.4597 8.11804 22.7496 8.11804C23.0404 8.11804 23.2769 8.35019 23.2769 8.63527ZM20.1492 13.7093C20.1492 13.4288 20.3815 13.2002 20.6677 13.2002C20.9539 13.2002 21.1862 13.4288 21.1862 13.7093C21.1862 13.9898 20.9539 14.2184 20.6677 14.2184C20.3815 14.2184 20.1492 13.9898 20.1492 13.7093ZM20.1492 23.3819C20.1492 23.1014 20.3815 22.8728 20.6677 22.8728C20.9539 22.8728 21.1862 23.1014 21.1862 23.3819C21.1862 23.6624 20.9539 23.891 20.6677 23.891C20.3815 23.891 20.1492 23.6624 20.1492 23.3819ZM25.3344 16.7638C25.3344 17.0443 25.1021 17.2729 24.8159 17.2729C24.5296 17.2729 24.2973 17.0443 24.2973 16.7638C24.2973 16.4833 24.5296 16.2547 24.8159 16.2547C25.1021 16.2547 25.3344 16.4833 25.3344 16.7638ZM28.963 18.4295L26.3512 16.9583C26.3595 16.8941 26.3714 16.8305 26.3714 16.7638C26.3714 15.9218 25.6735 15.2366 24.8159 15.2366C23.9577 15.2366 23.2603 15.9218 23.2603 16.7638C23.2603 17.6058 23.9577 18.2911 24.8159 18.2911C25.2301 18.2911 25.6045 18.1287 25.8835 17.869L28.3853 19.2782L26.1396 20.3809C25.9639 20.4674 25.8529 20.6435 25.8529 20.8365V25.1337L19.6208 28.8988L16.5201 27.1593V23.891H19.2076C19.4222 24.482 19.9926 24.9092 20.6677 24.9092C21.5253 24.9092 22.2233 24.2239 22.2233 23.3819C22.2233 22.5394 21.5253 21.8547 20.6677 21.8547C19.9926 21.8547 19.4222 22.2813 19.2076 22.8728H16.5201V15.7456C16.5201 15.567 16.4241 15.401 16.2681 15.3089L13.675 13.7816L13.1414 14.6547L15.483 16.0338V17.531L12.3714 19.8809V17.782C12.3714 17.6272 12.2999 17.4806 12.177 17.3844L9.77882 15.5008V12.9635L12.6587 11.0784C12.8033 10.9837 12.8899 10.8248 12.8899 10.6548V7.60031H11.8529V10.3825L9.266 12.0752L6.6677 10.3814V6.36527L9.2603 4.88078V9.12756H10.2973V4.28668L12.373 3.09797L15.482 4.85889L15.4825 11.1639C15.4825 11.3467 15.5821 11.5152 15.7439 11.6058L19.1329 13.5072C19.1236 13.5739 19.1121 13.6401 19.1121 13.7093C19.1121 14.5513 19.8096 15.2366 20.6677 15.2366C21.5253 15.2366 22.2233 14.5513 22.2233 13.7093C22.2233 12.8673 21.5253 12.1821 20.6677 12.1821C20.256 12.1821 19.8837 12.3424 19.6053 12.5995L16.5196 10.8681L16.519 4.85991L19.611 3.10815L25.3344 6.8545V8.10939H24.219C24.0002 7.52089 23.4241 7.09988 22.7496 7.09988C21.8873 7.09988 21.1862 7.78867 21.1862 8.63527C21.1862 9.48188 21.8873 10.1707 22.7496 10.1707C23.4371 10.1707 24.022 9.73337 24.2315 9.12756H25.3344V10.6548C25.3344 10.8376 25.4339 11.0061 25.5957 11.0967L28.963 12.9864V18.4295ZM12.3807 28.8988L10.7459 27.9112L13.7097 25.8326L13.1072 25.0038L9.78711 27.3319L6.14919 25.1337V21.1246L8.48978 19.7455L7.95622 18.8724L5.60785 20.2561L3.03807 18.9946L3.03756 16.0598L5.86244 14.6735L5.39889 13.7628L3.03756 14.9214L3.03807 12.9864L6.12896 11.2525L8.74178 12.9554V15.4809L5.86244 17.3579L6.43593 18.2061L9.23748 16.3795L11.3344 18.0263V20.6644L8.944 22.4691L9.57607 23.276L15.483 18.8154V27.1588L12.3807 28.8988ZM29.7387 12.2493L26.3714 10.3595V6.58214C26.3714 6.41159 26.2848 6.25276 26.1401 6.15858L19.9179 2.08591C19.7541 1.979 19.5425 1.97187 19.3714 2.0686L16.0021 3.97766L12.6307 2.0686C12.4689 1.97696 12.2703 1.97696 12.1101 2.06962L5.88785 5.63321C5.72815 5.72433 5.63067 5.89182 5.63067 6.07305V10.3595L2.26237 12.2493C2.10059 12.3394 2.00104 12.5084 2.00104 12.6911V12.9034C2.00052 12.9141 2 12.9243 2 12.935V18.4759C2 18.486 2.00052 18.4962 2.00104 18.5059V19.3092C2.00104 19.5022 2.112 19.6783 2.28778 19.7644L5.11215 21.1511V25.4182C5.11215 25.5949 5.20496 25.7588 5.35844 25.8515L12.0992 29.9241C12.1827 29.9745 12.277 30 12.3714 30C12.4601 30 12.5487 29.9776 12.6286 29.9328L16.0016 28.041L19.3735 29.9328C19.5368 30.0249 19.7401 30.0214 19.9024 29.9241L26.6431 25.8515C26.7966 25.7588 26.8899 25.5949 26.8899 25.4182V21.1511L29.7133 19.7644C29.889 19.6783 30 19.5022 30 19.3092V12.6911C30 12.5084 29.8999 12.3399 29.7387 12.2493Z" fill="#1D2A3E"/>
</g>
</svg>

<svg xmlns="http://www.w3.org/2000/svg" width="32" height="32" fill="none"><mask id="a" width="28" height="28" x="2" y="2" maskUnits="userSpaceOnUse" style="mask-type:luminance"><path fill="#fff" d="M30 2H2v28h28z"/></mask><g mask="url(#a)"><path fill="#1D2A3E" fill-rule="evenodd" d="M23.277 8.635a.523.523 0 0 1-.527.518.523.523 0 0 1-.527-.518c0-.285.237-.517.527-.517s.527.232.527.517m-3.128 5.074c0-.28.232-.509.519-.509.286 0 .518.229.518.51 0 .28-.232.508-.518.508a.514.514 0 0 1-.519-.509m0 9.673c0-.28.232-.51.519-.51.286 0 .518.23.518.51s-.232.509-.518.509a.514.514 0 0 1-.519-.51m5.185-6.618c0 .28-.232.509-.518.509a.514.514 0 0 1-.519-.51c0-.28.233-.508.519-.508s.518.228.518.509m3.629 1.666-2.612-1.472c.009-.064.02-.127.02-.194 0-.842-.697-1.527-1.555-1.527s-1.556.685-1.556 1.527.698 1.527 1.556 1.527c.414 0 .789-.162 1.068-.422l2.501 1.41-2.245 1.102a.51.51 0 0 0-.287.456v4.297l-6.232 3.765-3.1-1.74v-3.268h2.687a1.55 1.55 0 0 0 1.46 1.018c.857 0 1.555-.685 1.555-1.527 0-.843-.698-1.527-1.555-1.527a1.55 1.55 0 0 0-1.46 1.018H16.52v-7.127a.51.51 0 0 0-.252-.437l-2.593-1.527-.534.873 2.342 1.379v1.497l-3.112 2.35v-2.099a.5.5 0 0 0-.194-.398l-2.398-1.883v-2.537l2.88-1.886a.5.5 0 0 0 .23-.423V7.6h-1.036v2.783l-2.587 1.692-2.598-1.694V6.365L9.26 4.881v4.247h1.037V4.287l2.076-1.189 3.109 1.76v6.306c0 .183.1.351.262.442l3.389 1.901c-.01.067-.02.133-.02.202 0 .842.697 1.528 1.555 1.528.857 0 1.555-.686 1.555-1.528s-.698-1.527-1.555-1.527c-.412 0-.784.16-1.063.418l-3.085-1.732-.001-6.008 3.092-1.752 5.723 3.746V8.11H24.22a1.565 1.565 0 0 0-1.47-1.01c-.862 0-1.563.69-1.563 1.536s.701 1.536 1.564 1.536c.687 0 1.272-.438 1.482-1.043h1.102v1.527c0 .183.1.351.262.442l3.367 1.89zM12.381 28.899l-1.635-.988 2.964-2.078-.603-.83-3.32 2.329-3.638-2.198v-4.01l2.34-1.378-.533-.874-2.348 1.384-2.57-1.261V16.06l2.824-1.386-.463-.911-2.361 1.158v-1.935l3.091-1.734 2.613 1.703v2.526l-2.88 1.877.574.848 2.801-1.826 2.097 1.646v2.638l-2.39 1.805.632.807 5.907-4.46v8.343zm17.358-16.65-3.368-1.89V6.583c0-.17-.086-.33-.23-.423l-6.223-4.073a.53.53 0 0 0-.547-.017l-3.369 1.909-3.371-1.91a.53.53 0 0 0-.52.002L5.887 5.633a.5.5 0 0 0-.257.44v4.287l-3.369 1.89a.5.5 0 0 0-.261.441v.212L2 12.935v5.54l.001.03v.804c0 .193.111.37.287.455l2.824 1.387v4.267c0 .177.093.34.246.434l6.741 4.072a.53.53 0 0 0 .53.009l3.373-1.892 3.372 1.892a.53.53 0 0 0 .528-.009l6.741-4.072a.51.51 0 0 0 .247-.434v-4.267l2.823-1.387A.51.51 0 0 0 30 19.31v-6.618c0-.183-.1-.351-.261-.442" clip-rule="evenodd"/></g></svg>
